svg/trip_curve_alt.svg

<svg width="24" height="24" viewBox="0 0 24 24"  xmlns="http://www.w3.org/2000/svg">
<path fill-rule="evenodd" clip-rule="evenodd" d="M7 5.53163V3H5V6.46837L11 11.4684V16.5H15V21H19V19H17V14.5H13V10.5316L7 5.53163Z" />
</svg>

<svg width="24" height="24" viewBox="0 0 24 24" xmlns="http://www.w3.org/2000/svg"><path fill-rule="evenodd" clip-rule="evenodd" d="M7 5.532V3H5v3.468l6 5V16.5h4V21h4v-2h-2v-4.5h-4v-3.968l-6-5z"/></svg>
